X:330
T: WAER ICH EIN VOEGELEIN
N: B0387
O: Europa, Mitteleuropa, Deutschland
R: Liebes - Lied, Liebes - Lust
M: 3/8
L: 1/16
K: G
 | B3AB2 | d3cB2
A2G2A2 | B3AG2
B2B2^A2 | B4z2
B2A2Bc | e3dcB
B2A2Bc | e3dcB
BAA2cB | A4z2
B2dcAF | G4z2

